X: 19939
T: Jig You Don't Like, The
R: jig
M: 6/8
K: Edorian
|:DEE EDE|~B3 BAB|edB ABd|BAG AGE|
DEE EDE|~A3 AGA|Bde ged|1 BAG AGE:|2 BAG ABd||
|:~a3 age|gaa age|gab age|ged Bde|
~a3 age|gaa aga|bag age|1 dBd ede:|2 deg BAG|

